X:1324
T:Miss Brady
R:Reel
B:O'Neill's 1324
Z:Transcribed by Trish O'Neil
M:C|
L:1/8
K:Em
EFGA cBABc|dDDE FDFD|EFGA BAGF|GBAF GEE2::
efge fafd|efge fddf|gfed 3efg fe|dBAF GE Ez:|
